X:1
T:Title
%%score { 1 | ( 2 3 ) }
L:1/8
Q:1/4=100
M:4/4
K:G
V:1 treble nm="Grand Piano"
V:2 bass 
V:3 bass 
V:1
 [B,D]2 [B,G]2 [CG]2 [CF]2 | [DG]2 A2 B4 | c2 B2 A2 G2 | [DF]2 [^CE]2 A2 D2 | %4
w: C.~Harold~Lowden * * *||||
 [G,B,D]2 [B,G]2 [CG]2 [CF]2 | [DG]2 [DB]2 [=Fd]2 [Ec]2 | [DEB]2 [CEA]2 G2 D2 | B2 A2 [B,G]4 |] %8
w: ||||
V:2
 [G,,G,]2 [G,,D,]2 [A,,D,]2 [A,,D,]2 | [B,,G,]2 [D,F,D]2 [G,D]4 | %2
 [G,E]2 [G,D]2 [D,F,C]2 [E,G,B,]2 | z4 G,2 z2 | G,,2 [G,,D,]2 [A,,D,]2 [A,,D,]2 | %5
 [B,,G,]2 [G,,G,]2 [^G,,B,]2 [A,,A,]2 | B,,2 C,2 [D,B,D]2 [D,G,B,]2 | [D,E,C]2 [D,F,C]2 [G,,G,]4 |] %8
V:3
 x8 | x8 | x8 | [A,,A,]2 [A,,G,]2 [D,C]2- [D,F,C]2 | x8 | x8 | x8 | x8 |] %8

